!!!!SEGMENT: pl-wnifc--13846--001-024_anonim--piesni-polskie-i-ruskie-ludu-galicyjskiego-24-zacni-sasiedzi.krn
!!!cenid: 18xx:3246
!!!COM: Anonim
!!!COM-rismID: pe30004985
!!!CDT:
!!!CNT:
!!!GTL: Pieśni polskie i ruskie ludu galicyjskiego
!!!OTL: 24. Zacni sąsiedzi
!!!OMV: 024
!!!PDT: 1833
!!!AGN:
!!!YEC: Copyright 2022 Narodowy Instytut Fryderyka Chopina (https://polishscores.org)
!!!YEM: License CC-BY-4.0 (https://creativecommons.org/licenses/by/4.0)
!!!SMS-siglum: PL-Wnifc
!!!SMS-shelfmark: 13846
!!!SMS-shelfwork: 001-024 G
!!!SMS-variant:
!!!SMS-altvar:
!!!NIFC-rismSourceID: 1001036701
!!!NIFC-rismChildID: 1001036782
!!!NIFC-islandoraID: nifc:210326
!!!URL-pdf-islandora: https://repozytorium.nifc.pl/islandora/object/nifc%3A210326/datastream/PDF/view
!!!URL-scan:
!!!IIIF:
!!!ONB-nifc:
!!!OMD: Allegretto.
!!!AIN: 2 piano 1 vox
!!!key: G
**kern	**kern	**dynam	**kern	**text
*group2	*group2	*	*group1	*
*part3	*part2	*	*part1	*
*staff3	*staff2	*	*staff1	*
*I"[FORTEPIAN.]	*I"[FORTEPIAN.]	*	*I"[GŁOS.]	*
*I'	*I'	*	*I'	*
*Ipiano	*Ipiano	*	*Ivox	*
*ICklav	*ICklav	*	*ICvox	*
*IGacmp	*IGacmp	*	*IGsolo	*
*clefF4	*clefG2	*	*clefG2	*
*k[f#]	*k[f#]	*	*k[f#]	*
*G:	*G:	*	*G:	*
*M3/8	*M3/8	*	*M3/8	*
*>[A,B,B,C,D,D]	*>[A,B,B,C,D,D]	*>[A,B,B,C,D,D]	*>[A,B,B,C,D,D]	*>[A,B,B,C,D,D]
=1	=1	=1	=1	=1
*>A	*>A	*>A	*>A	*>A
!	!	!LO:DY:rj:t=sf.	!LO:TX:a:B:t=D.a.12	!
8GG\L	8dd 8b\	sf	8dd\	Za-
8G 8D\	8.bL 8.g\	.	8.b/	-cni
8GG\J	.	.	.	.
!	!	!	!LO:N:vis=8	!
.	16ddJk 16b\	.	16dd\	są-
=2	=2	=2	=2	=2
8DD/L	16ddLL 16b\	.	(16dd\LL	-sie-
.	16ccJJ 16a\	.	16cc\JJ)	.
8F# 8D/	4cc 4a\	.	4cc\	-dzi
8DD/J	.	.	.	.
=3	=3	=3	=3	=3
(8DD/L	16aLL 16f#/	.	16a/	przy-
.	16aJJ 16f#/	.	16a/	-ja-
!!linebreak:original
8D 8AA/)L	8.ddL 8.f#/	.	8.dd\	-cie-
8DD/J	.	.	.	.
.	16ccJk 16a/	.	16cc/	-le
=4	=4	=4	=4	=4
8GG/L	16ccLL 16a\	.	(16cc\LL	mi-
.	16bJJ 16g\	.	16b\JJ)	.
8D/	4b 4g\	.	4b\	-li,
8G/J	.	.	.	.
=5	=5	=5	=5	=5
16GG/LL	8dd 8b\	.	8dd\	so-
16D/	.	.	.	.
16G/	8.bL 8.g\	.	8.b/	-le-
16D/	.	.	.	.
16GG/	.	.	.	.
16D/JJ	16ddJk 16b\	.	16dd\	-ni-
!!linebreak:original
=6	=6	=6	=6	=6
16DD/LL	16ddLL 16b\	.	(16dd\LL	-zan-
16D/	16ccJJ 16a\	.	16cc\JJ)	.
16F#/	4cc 4a\	.	4cc\	-ta
16D/	.	.	.	.
16DD/	.	.	.	.
16D/JJ	.	.	.	.
=7	=7	=7	=7	=7
16DD/LL	16aLL 16f#/	.	16a/	bę-
16D/	16aJJ 16f#/	.	16a/	-dziem
!	!	!LO:DY:rj:t=sf.	!	!
16F#/	8.ddLL 8.a 8.f# 8.d/	sf	8.dd\	zdro-
16D/	.	.	.	.
16DD/	.	.	.	.
16D/JJ	16ccJk 16a/J	.	16cc\	-wie
=8	=8	=8	=8	=8
16GG/LL	16ccLL 16a\	.	(16cc\LL	pi-
16D/	16bJJ 16g\	.	16b\JJ)	.
16G/	4b 4g\	.	4b\	-li.
16D/	.	.	.	.
16BB/	.	.	.	.
16GG/JJ	.	.	.	.
!!pagebreak:original
=9!|:	=9!|:	=9!|:	=9!|:	=9!|:
*>B	*>B	*>B	*>B	*>B
!LO:TX:t=P:problem:mixed beam	!	!	!	!
16DD/LL	16ccLL 16a\	.	16cc\	wy-
16D\JJ	16ccJJ 16a\	.	16cc\	-krzy-
16dLL 16F#\	8ccL 8a\	.	8cc\	-knij-
16D\	.	.	.	.
16d 16F#\	8ccJ 8a\	.	8cc\	-my
16D\JJ	.	.	.	.
=10	=10	=10	=10	=10
16GG/LL	16bLL 16g\	.	16b\	wszy-
16D/JJ	16bJJ 16g\	.	16b\	-scy
16dLL 16G\	8bL 8g\	.	8b\	ra-
16D\	.	.	.	.
16d 16G\	8bJ 8g\	.	8b\	-zem
16D\JJ	.	.	.	.
=11	=11	=11	=11	=11
16dLL 16F#\	8cc 8a\	.	8cc\	by
16D\JJ	.	.	.	.
!!linebreak:original
!	!	!LO:DY:rj:t=sf.	!	!
16A\LL	4a 4f#\	sf	4a/	nam
16F#\	.	.	.	.
16D\	.	.	.	.
16C\JJ	.	.	.	.
=12	=12	=12	=12	=12
*	*^	*	*	*
4BB/	4dd/	4dd 4g 4d\	.	4dd\	był
8r;	8r;	8ryy	.	8r;	.
*	*v	*v	*	*	*
=13	=13	=13	=13	=13
8AA/	16ccLL 16a 16e/	.	16cc\	w zdro-
.	16ccJJ 16a 16e/	.	16cc\	-wiu
8AL 8AA/	8ccL 8a 8e/	.	8cc\	w szczę-
8GJ 8GG/	8ccJ 8a 8e/	.	8cc\	-śćiu
!!linebreak:original
=14	=14	=14	=14	=14
8F#L 8FF#/	16ddLL 16a 16d\	.	16dd\	w set-
.	16ccJJ 16a\	.	16cc\	-ne
8G 8GG/	8bL 8g 8d/	.	8b/	la-
8GJ 8GG/	8gJ 8B/	.	8g/	-ta
=15	=15	=15	=15	=15
8D 8DD/	8a 8g 8A/	.	8a/	z na-
!	!	!LO:DY:rj:t=sf.	!	!
8F#L 8D\	4dd 4a 4f# 4d/	sf	4dd\	-mi
8cJ 8F# 8D\	.	.	.	.
=16	=16	=16	=16	=16
*	*^	*	*	*
!LO:TX:t=P:problem:mixed beam	!	!	!	!	!
8BL 8G\	4g 4d/	4d\	.	4g/	żył
8GG/J	.	.	.	.	.
8r	8r	8ryy	.	8r	.
*	*v	*v	*	*	*
!!linebreak:original
=17:|!	=17:|!	=17:|!	=17:|!	=17:|!
*>C	*>C	*>C	*>C	*>C
*k[f#]	*k[f#]	*	*k[f#]	*
*M3/8	*M3/8	*	*M3/8	*
!LO:TX:t=P:problem:mixed beam	!	!	!	!
8GG/L	4dd 4b\	.	4dd\	Wy-
8G\J	.	.	.	.
8r	8b 8g\	.	8b/	-pił,
=18	=18	=18	=18	=18
!LO:TX:t=P:problem:mixed beam	!	!	!	!
8GG/L	4dd 4b 4g\	.	4dd\	wy-
8G\J	.	.	.	.
8r	8b 8g/	.	8b\	-pił
=19	=19	=19	=19	=19
8DD/L	16aLL 16f#/	.	16a/LL	a
.	16ccJJ 16a/	.	16cc/JJ	nic
8D/	8ccL 8a/	.	8cc/	nie
8D/J	8ccJ 8a/	.	8cc/	zo-
!!pagebreak:original
=20	=20	=20	=20	=20
*	*^	*	*	*
8GG/	8cc 8a\	8ryy	.	(16cc\LL	-sta-
.	.	.	.	16b\JJ)	.
4G\	4b/	4g\	.	4b\	-wił,
*	*v	*v	*	*	*
=21!|:	=21!|:	=21!|:	=21!|:	=21!|:
*>D	*>D	*>D	*>D	*>D
8D 8DD/	16aLL 16f#/	.	16a/	bo-
.	16aJJ 16f#/	.	16a/	-daj-
8dL 8D\	8aL 8f#/	.	8a/	-że
8dJ 8D\	8aJ 8f#/	.	8a/	go,
=22	=22	=22	=22	=22
8D 8DD/	16bLL 16g/	.	16b/	bo-
.	16bJJ 16g/	.	16b/	-daj-
8dL 8D\	8bL 8g/	.	8b/	-że
8dJ 8D\	8bJ 8g/	.	8b/	go
!!linebreak:original
=23	=23	=23	=23	=23
8DL 8DD/	16ccLL 16a\	.	16cc\	pan
.	16ccJJ 16a\	.	16cc\	Bóg
8F# 8FF#/	8ccL 8a\	.	8cc\	bło-
8DJ 8DD/	8ccJ 8a\	.	8cc\	-go-
=24	=24	=24	=24	=24
8GG/	8cc 8a\	.	(16cc\LL	-sła-
.	.	.	16b\JJ)	.
4G\	4b 4g\	.	4b\	-wił
=:|!	=:|!	=:|!	=:|!	=:|!
*-	*-	*-	*-	*-
!!!system-decoration: g1{(g2)}
!!!RDF**kern: > = above
!!!RDF**kern: < = below
!!!RDF**kern: | = vertical stroke
!!!ENC: Katarzyna Serwa
!!!END: 2021-11-11
!!!ENC: Anastazja Marusiak
!!!END: 2021-11-09
